docs/icons/fsou.svg

<svg xmlns="http://www.w3.org/2000/svg" xmlns:xlink="http://www.w3.org/1999/xlink" width="30" height="30" fill="none" xmlns:v="https://vecta.io/nano"><defs><path id="A" d="M0 0h30v30H0z"/></defs><g transform="matrix(1 0 0 1 0 0)"><mask id="B" fill="#fff"><use xlink:href="#A"/></mask><g mask="url(#B)"><path fill-rule="evenodd" transform="matrix(1 0 0 1 7.406502 2)" d="M5.44 15.98h5.92c1.36 0 1.91-.55 1.91-1.91v-.78c0-1.36-.55-1.91-1.91-1.91l-5.92-.01v-.54c0-4.2 1.21-5.41 5.41-5.41h2.42c1.36 0 1.92-.56 1.92-1.92V1.91C15.19.55 14.71 0 13.27 0h-2.42C2.84 0 .02 2.82.02 10.83v13.26C-.13 25.33.57 26 1.93 26h1.59c1.35 0 1.92-.52 1.92-1.91v-8.11z" fill="#1973e8"/></g></g></svg>

<svg xmlns="http://www.w3.org/2000/svg" xmlns:xlink="http://www.w3.org/1999/xlink" width="30" height="30" viewBox="0 0 30 30" fill="none"><defs><rect id="path_0" x="0" y="0" width="30" height="30.000000000000004" /></defs><g opacity="1" transform="translate(0 0)  rotate(0 15 15.000000000000002)"><mask id="bg-mask" fill="white"><use xlink:href="#path_0"></use></mask><g mask="url(#bg-mask)" ><path id="f" fill-rule="evenodd" style="fill:#1973E8" transform="translate(7.406502002069956 2.0000000000000284)  rotate(0 7.593497997930006 13.000000000000002)" opacity="1" d="M5.44,15.98L11.36,15.98C12.72,15.98 13.27,15.43 13.27,14.07L13.27,13.29C13.27,11.93 12.72,11.38 11.36,11.38L5.44,11.37L5.44,10.83C5.44,6.63 6.65,5.42 10.85,5.42L13.27,5.42C14.63,5.42 15.19,4.86 15.19,3.5L15.19,1.91C15.19,0.55 14.71,0 13.27,0L10.85,0C2.84,0 0.02,2.82 0.02,10.83L0.02,24.09C-0.13,25.33 0.57,26 1.93,26L3.52,26C4.87,26 5.44,25.48 5.44,24.09L5.44,15.98Z " /></g></g></svg>
